ressources/icons/edit-paste.svg

<svg height="16" viewBox="0 0 16 16" width="16" xmlns="http://www.w3.org/2000/svg"><path d="m8 .00390625c-1.1046 0-2 .89543-2 1.99999995h-3c-1 0-1 1-1 1v10.9999998c0 1 1 1 1 1h10s1 0 1-1v-10.9999998c0-1-1-1-1-1h-3c0-.1380699-.00505-.2760499-.03125-.40625-.18649-.91136995-1.00215-1.59374995-1.96875-1.59374995zm0 .99999995c.41421 0 .75444.2660801.90625.625.0506.11964.09375.2369301.09375.375 0 .5522801-.44771 1-1 1s-1-.4477199-1-1c0-.55228.44771-1 1-1zm-4 3h1v1h6v-1h1v8.9999998h-8z" fill="#404040"/></svg>

<svg xmlns="http://www.w3.org/2000/svg" width="16" height="16" viewBox="0 0 16 16">
 <defs>
  <style id="current-color-scheme" type="text/css">
   .ColorScheme-Text { color:#404040; } .ColorScheme-Highlight { color:#5294e2; }
  </style>
 </defs>
 <path style="fill:currentColor" class="ColorScheme-Text" d="M 8 0.00390625 C 6.8954 0.00390625 6 0.89933625 6 2.0039062 L 3 2.0039062 C 2 2.0039062 2 3.0039062 2 3.0039062 L 2 14.003906 C 2 15.003906 3 15.003906 3 15.003906 L 13 15.003906 C 13 15.003906 14 15.003906 14 14.003906 L 14 3.0039062 C 14 2.0039062 13 2.0039062 13 2.0039062 L 10 2.0039062 C 10 1.8658363 9.99495 1.7278563 9.96875 1.5976562 C 9.78226 0.68628625 8.9666 0.00390625 8 0.00390625 z M 8 1.0039062 C 8.41421 1.0039062 8.75444 1.2699863 8.90625 1.6289062 C 8.95685 1.7485462 9 1.8658363 9 2.0039062 C 9 2.5561863 8.55229 3.0039062 8 3.0039062 C 7.44771 3.0039062 7 2.5561863 7 2.0039062 C 7 1.4516262 7.44771 1.0039062 8 1.0039062 z M 4 4.0039062 L 5 4.0039062 L 5 5.0039062 L 11 5.0039062 L 11 4.0039062 L 12 4.0039062 L 12 13.003906 L 4 13.003906 L 4 4.0039062 z"/>
</svg>
